X: 1
T: Rebecka Ridinghoode
P: Play ABB
S: printed copy of unknown origin
N: "Reproduced coutesy of The British Library, London
Z: 2013 John Chambers <jc:trillian.mit.edu>
M: 3/4	% originally 3/2
L: 1/16	% originally 1/8
K: G
"A"[|] G2 G2G2 |\
"G"d4 efg2 e2dc | "Am"c6 B2 A2B2 | "G"G6 AB "C"c2B2 | "D"A6 G2 "C/d"G2G2 |
"G"d4 efg2 e2dc | "Am"c6 A2 "Em"B2^c2 | "D"d6 ed "A"^cded | "D"d6 |]
"B"|: d2 c2B2 |\
"Am"c4 B2A2 "G"B2G2 | "C"c6 B2 A2B2 | "G"G4 "C"GAB2 "D"G2F2 | "G"G6 :|


